src/icons/volume.svg

<svg width="18px" height="18px" viewBox="0 0 18 18" xmlns="http://www.w3.org/2000/svg">
    <path d="M15.5999996,3.3 C15.1999996,2.9 14.5999996,2.9 14.1999996,3.3 C13.7999996,3.7 13.7999996,4.3 14.1999996,4.7 C15.3999996,5.9 15.9999996,7.4 15.9999996,9 C15.9999996,10.6 15.3999996,12.1 14.1999996,13.3 C13.7999996,13.7 13.7999996,14.3 14.1999996,14.7 C14.3999996,14.9 14.6999996,15 14.8999996,15 C15.1999996,15 15.3999996,14.9 15.5999996,14.7 C17.0999996,13.2 17.9999996,11.2 17.9999996,9 C17.9999996,6.8 17.0999996,4.8 15.5999996,3.3 L15.5999996,3.3 Z"></path>
    <path d="M11.2819745,5.28197449 C10.9060085,5.65794047 10.9060085,6.22188944 11.2819745,6.59785542 C12.0171538,7.33303477 12.2772954,8.05605449 12.2772954,9.00000021 C12.2772954,9.93588462 11.851678,10.9172014 11.2819745,11.4869049 C10.9060085,11.8628709 10.9060085,12.4268199 11.2819745,12.8027859 C11.4271642,12.9479755 11.9176724,13.0649528 12.2998149,12.9592565 C12.4124479,12.9281035 12.5156669,12.8776063 12.5978555,12.8027859 C13.773371,11.732654 14.1311161,10.1597914 14.1312523,9.00000021 C14.1312723,8.8299555 14.1286311,8.66015647 14.119665,8.4897429 C14.0674781,7.49784946 13.8010171,6.48513613 12.5978554,5.28197449 C12.2218894,4.9060085 11.6579405,4.9060085 11.2819745,5.28197449 Z"></path>
    <path d="M3.78571429,6.00820648 L0.714285714,6.00820648 C0.285714286,6.00820648 0,6.30901277 0,6.76022222 L0,11.2723167 C0,11.7235261 0.285714286,12.0243324 0.714285714,12.0243324 L3.78571429,12.0243324 L7.85714286,15.8819922 C8.35714286,16.1827985 9,15.8819922 9,15.2803796 L9,2.75215925 C9,2.15054666 8.35714286,1.77453879 7.85714286,2.15054666 L3.78571429,6.00820648 Z"></path>
</svg>

<svg viewBox="0 0 18 18" xmlns="http://www.w3.org/2000/svg"><path d="M15.6 3.3c-.4-.4-1-.4-1.4 0-.4.4-.4 1 0 1.4C15.4 5.9 16 7.4 16 9c0 1.6-.6 3.1-1.8 4.3-.4.4-.4 1 0 1.4.2.2.5.3.7.3.3 0 .5-.1.7-.3C17.1 13.2 18 11.2 18 9s-.9-4.2-2.4-5.7z"/><path d="M11.282 5.282a.909.909 0 0 0 0 1.316c.735.735.995 1.458.995 2.402 0 .936-.425 1.917-.995 2.487a.909.909 0 0 0 0 1.316c.145.145.636.262 1.018.156a.725.725 0 0 0 .298-.156C13.773 11.733 14.13 10.16 14.13 9c0-.17-.002-.34-.011-.51-.053-.992-.319-2.005-1.522-3.208a.909.909 0 0 0-1.316 0zM3.786 6.008H.714C.286 6.008 0 6.31 0 6.76v4.512c0 .452.286.752.714.752h3.072l4.071 3.858c.5.3 1.143 0 1.143-.602V2.752c0-.601-.643-.977-1.143-.601L3.786 6.008z"/></svg>
